img/main/icon-04.svg

<svg width="100" height="100" viewBox="0 0 100 100" fill="none" xmlns="http://www.w3.org/2000/svg">
<g clip-path="url(#clip0)">
<path d="M38.3333 33.3335H35V36.6668H38.3333V33.3335Z" fill="#007A65"/>
<path d="M38.3333 40.0002H35V43.3336H38.3333V40.0002Z" fill="#007A65"/>
<path d="M38.3333 46.6667H35V50.0001H38.3333V46.6667Z" fill="#007A65"/>
<path d="M38.3333 53.3336H35V56.6669H38.3333V53.3336Z" fill="#007A65"/>
<path d="M45.0003 33.3335H41.667V36.6668H45.0003V33.3335Z" fill="#007A65"/>
<path d="M45.0003 40.0002H41.667V43.3336H45.0003V40.0002Z" fill="#007A65"/>
<path d="M45.0003 46.6667H41.667V50.0001H45.0003V46.6667Z" fill="#007A65"/>
<path d="M45.0003 53.3336H41.667V56.6669H45.0003V53.3336Z" fill="#007A65"/>
<path d="M51.6668 33.3335H48.3335V36.6668H51.6668V33.3335Z" fill="#007A65"/>
<path d="M51.6668 40.0002H48.3335V43.3336H51.6668V40.0002Z" fill="#007A65"/>
<path d="M51.6668 46.6667H48.3335V50.0001H51.6668V46.6667Z" fill="#007A65"/>
<path d="M51.6668 53.3336H48.3335V56.6669H51.6668V53.3336Z" fill="#007A65"/>
<path d="M58.3333 33.3335H55V36.6668H58.3333V33.3335Z" fill="#007A65"/>
<path d="M45.0003 26.667H41.667V30.0003H45.0003V26.667Z" fill="#007A65"/>
<path d="M51.6668 26.667H48.3335V30.0003H51.6668V26.667Z" fill="#007A65"/>
<path d="M58.3333 26.667H55V30.0003H58.3333V26.667Z" fill="#007A65"/>
<path d="M58.3333 40.0002H55V43.3336H58.3333V40.0002Z" fill="#007A65"/>
<path d="M58.3333 46.6667H55V50.0001H58.3333V46.6667Z" fill="#007A65"/>
<path d="M58.3333 53.3336H55V56.6669H58.3333V53.3336Z" fill="#007A65"/>
<path d="M64.9998 33.3335H61.6665V36.6668H64.9998V33.3335Z" fill="#007A65"/>
<path d="M64.9998 40.0002H61.6665V43.3336H64.9998V40.0002Z" fill="#007A65"/>
<path d="M64.9998 46.6667H61.6665V50.0001H64.9998V46.6667Z" fill="#007A65"/>
<path d="M64.9998 53.3336H61.6665V56.6669H64.9998V53.3336Z" fill="#007A65"/>
<path d="M98.3352 25.0004C98.3346 25.0004 98.334 25.0004 98.3333 25.0004H73.3333V1.66703C73.334 0.747033 72.5885 0.000991604 71.6685 0.000366604C71.6679 0.000366604 71.6673 0.000366604 71.6667 0.000366604H28.3333C27.4133 -0.000258396 26.6673 0.745158 26.6667 1.66516C26.6667 1.66578 26.6667 1.66641 26.6667 1.66703V25.0004H1.66667C0.746667 24.9997 0.000625393 25.7452 3.9274e-07 26.6652C3.9274e-07 26.6658 3.9274e-07 26.6664 3.9274e-07 26.667V86.667C-0.000624607 87.587 0.744792 88.3331 1.66479 88.3337C1.66542 88.3337 1.66604 88.3337 1.66667 88.3337H5.15063C5.05396 88.8841 5.00354 89.4416 5 90.0004V98.3337C4.99938 99.2537 5.74479 99.9997 6.66479 100C6.66542 100 6.66604 100 6.66667 100H93.3333C94.2533 100.001 94.9994 99.2556 95 98.3356C95 98.3349 95 98.3343 95 98.3337V90.0004C94.9967 89.4416 94.9463 88.8841 94.8494 88.3337H98.3333C99.2533 88.3343 99.9994 87.5889 100 86.6689C100 86.6683 100 86.6677 100 86.667V26.667C100.001 25.747 99.2552 25.001 98.3352 25.0004ZM71.6667 71.667C71.6667 73.5081 70.1744 75.0004 68.3333 75.0004C66.4923 75.0004 65 73.5081 65 71.667C65 69.826 66.4923 68.3337 68.3333 68.3337C70.1733 68.336 71.6644 69.827 71.6667 71.667ZM31.6667 68.3337C33.5077 68.3337 35 69.826 35 71.667C35 73.5081 33.5077 75.0004 31.6667 75.0004C29.8256 75.0004 28.3333 73.5081 28.3333 71.667C28.3356 69.827 29.8267 68.336 31.6667 68.3337ZM21.6667 96.667H8.33333V90.0004C8.33333 86.3185 11.3181 83.3337 15 83.3337C18.6819 83.3337 21.6667 86.3185 21.6667 90.0004V96.667ZM11.6667 76.667C11.6667 74.826 13.159 73.3337 15 73.3337C16.841 73.3337 18.3333 74.826 18.3333 76.667C18.3333 78.5081 16.841 80.0004 15 80.0004C13.16 79.9981 11.669 78.507 11.6667 76.667ZM21.9192 82.7972C21.2906 82.191 20.5858 81.6693 19.8225 81.2454C22.3646 78.582 22.2665 74.362 19.6031 71.8197C16.9398 69.2775 12.7198 69.3758 10.1775 72.0391C7.71854 74.6152 7.71854 78.6691 10.1775 81.2452C8.58667 82.1281 7.265 83.4258 6.35292 85.0002H3.33333V28.3337H26.6667V67.3037C24.3779 69.8718 24.4552 73.7702 26.8442 76.2454C24.3442 77.6281 22.5527 80.0114 21.9192 82.7972ZM38.3333 96.667H25V85.0004C25 81.3185 27.9848 78.3337 31.6667 78.3337C35.3485 78.3337 38.3333 81.3185 38.3333 85.0004V96.667ZM58.3333 96.667H41.6667V85.0004C41.6667 80.3981 45.3977 76.667 50 76.667C54.6023 76.667 58.3333 80.3981 58.3333 85.0004V96.667ZM45 68.3337C45 65.5722 47.2385 63.3337 50 63.3337C52.7615 63.3337 55 65.5722 55 68.3337C55 71.0952 52.7615 73.3337 50 73.3337C47.2398 73.3308 45.0029 71.0939 45 68.3337ZM60.1504 79.2702C59.0344 77.3027 57.374 75.6995 55.3685 74.6535C58.8888 71.6885 59.3387 66.4312 56.374 62.911C53.409 59.3908 48.1517 58.9408 44.6315 61.9056C41.1112 64.8706 40.6612 70.1279 43.626 73.6481C43.9319 74.0112 44.2681 74.3474 44.6315 74.6535C42.626 75.6995 40.9656 77.3027 39.8496 79.2702C38.9733 78.0202 37.8242 76.9858 36.4892 76.2454C39.0444 73.6314 38.9969 69.4408 36.3827 66.8856C34.6996 65.2402 32.2694 64.6127 30 65.237V3.3337H70V65.237C69.4569 65.0872 68.8967 65.0077 68.3333 65.0004C64.6612 64.9906 61.6765 67.9595 61.6667 71.6318C61.6621 73.3502 62.3231 75.0037 63.5108 76.2454C62.1758 76.9858 61.0267 78.0202 60.1504 79.2702ZM75 90.0004V96.667H61.6667V85.0004C61.6667 81.3185 64.6515 78.3337 68.3333 78.3337C72.0152 78.3337 75 81.3185 75 85.0004V90.0004ZM91.6667 96.667H78.3333V90.0004C78.3333 86.3185 81.3181 83.3337 85 83.3337C88.6819 83.3337 91.6667 86.3185 91.6667 90.0004V96.667ZM81.6667 76.667C81.6667 74.826 83.159 73.3337 85 73.3337C86.841 73.3337 88.3333 74.826 88.3333 76.667C88.3333 78.5081 86.841 80.0004 85 80.0004C83.16 79.9981 81.669 78.507 81.6667 76.667ZM96.6667 85.0004H93.6471C92.735 83.426 91.4133 82.1283 89.8225 81.2454C92.3646 78.582 92.2665 74.362 89.6031 71.8197C86.9398 69.2777 82.7198 69.3758 80.1775 72.0391C77.7185 74.6152 77.7185 78.6691 80.1775 81.2452C79.4142 81.6691 78.7092 82.1908 78.0808 82.797C77.4475 80.0112 75.6558 77.6279 73.1558 76.2452C75.5448 73.77 75.6223 69.8716 73.3335 67.3035V28.3337H96.6669V85.0004H96.6667Z" fill="#007A65"/>
<path d="M81.6668 38.3339H78.3335V65.0005H81.6668V38.3339Z" fill="#007A65"/>
<path d="M91.6668 38.3339H88.3335V65.0005H91.6668V38.3339Z" fill="#007A65"/>
<path d="M11.6663 38.3339H8.33301V65.0005H11.6663V38.3339Z" fill="#007A65"/>
<path d="M21.6668 38.3339H18.3335V65.0005H21.6668V38.3339Z" fill="#007A65"/>
<path d="M60.002 6.66724C60.0014 6.66724 60.0008 6.66724 60.0002 6.66724H40.0002C39.0802 6.66661 38.3341 7.41203 38.3335 8.33203C38.3335 8.33265 38.3335 8.33328 38.3335 8.3339V21.6672C38.3329 22.5872 39.0783 23.3333 39.9983 23.3339C39.9989 23.3339 39.9995 23.3339 40.0002 23.3339H60.0002C60.9202 23.3345 61.6662 22.5891 61.6668 21.6691C61.6668 21.6685 61.6668 21.6679 61.6668 21.6672V8.3339C61.6675 7.4139 60.922 6.66786 60.002 6.66724ZM58.3335 20.0006H41.6668V10.0006H58.3335V20.0006Z" fill="#007A65"/>
</g>
<defs>
<clipPath id="clip0">
<rect width="100" height="100" fill="white" transform="translate(0 0.000366211)"/>
</clipPath>
</defs>
</svg>

<svg width="100" height="100" fill="none" xmlns="http://www.w3.org/2000/svg"><g clip-path="url(#clip0)" fill="#007A65"><path d="M38.333 33.334H35v3.333h3.333v-3.334zm0 6.666H35v3.334h3.333V40zm0 6.667H35V50h3.333v-3.333zm0 6.667H35v3.333h3.333v-3.333zm6.667-20h-3.333v3.333H45v-3.334zM45 40h-3.333v3.334H45V40zm0 6.667h-3.333V50H45v-3.333zm0 6.667h-3.333v3.333H45v-3.333zm6.667-20h-3.334v3.333h3.334v-3.334zm0 6.666h-3.334v3.334h3.334V40zm0 6.667h-3.334V50h3.334v-3.333zm0 6.667h-3.334v3.333h3.334v-3.333zm6.666-20H55v3.333h3.333v-3.334zM45 26.667h-3.333V30H45v-3.333zm6.667 0h-3.334V30h3.334v-3.333zm6.666 0H55V30h3.333v-3.333zm0 13.333H55v3.334h3.333V40zm0 6.667H55V50h3.333v-3.333zm0 6.667H55v3.333h3.333v-3.333zm6.667-20h-3.334v3.333H65v-3.334zM65 40h-3.334v3.334H65V40zm0 6.667h-3.334V50H65v-3.333zm0 6.667h-3.334v3.333H65v-3.333z"/><path d="M98.335 25H73.333V1.667A1.666 1.666 0 0071.668 0H28.333c-.92 0-1.666.745-1.666 1.665V25h-25C.747 25 0 25.745 0 26.665v60.002c0 .92.745 1.666 1.665 1.667H5.15A10 10 0 005 90v8.334c0 .92.745 1.666 1.665 1.666h86.668A1.665 1.665 0 0095 98.336V90a9.951 9.951 0 00-.15-1.666h3.483c.92 0 1.666-.745 1.667-1.665V26.667A1.665 1.665 0 0098.335 25zM71.667 71.667a3.333 3.333 0 11-6.667 0 3.333 3.333 0 016.667 0zm-40-3.333a3.333 3.333 0 110 6.666 3.333 3.333 0 010-6.666zm-10 28.333H8.333V90a6.667 6.667 0 1113.334 0v6.667zm-10-20a3.333 3.333 0 116.666 0 3.333 3.333 0 01-6.666 0zm10.252 6.13a10.049 10.049 0 00-2.096-1.552 6.667 6.667 0 10-9.646 0A10.064 10.064 0 006.354 85h-3.02V28.334h23.334v38.97a6.576 6.576 0 00.177 8.941 10.028 10.028 0 00-4.925 6.552zm16.414 13.87H25V85a6.667 6.667 0 0113.333 0v11.667zm20 0H41.667V85a8.333 8.333 0 0116.666 0v11.667zM45 68.334a5 5 0 1110 0 5 5 0 01-10 0zM60.15 79.27a11.739 11.739 0 00-4.782-4.617 8.334 8.334 0 10-10.736 0 11.739 11.739 0 00-4.782 4.617 10.067 10.067 0 00-3.36-3.025A6.619 6.619 0 0030 65.237V3.334h40v61.903A6.59 6.59 0 0068.333 65a6.649 6.649 0 00-4.822 11.245 10.067 10.067 0 00-3.36 3.025zM75 90v6.667H61.667V85A6.667 6.667 0 0175 85v5zm16.667 6.667H78.333V90a6.667 6.667 0 0113.334 0v6.667zm-10-20a3.333 3.333 0 116.666 0 3.333 3.333 0 01-6.666 0zm15 8.333h-3.02a10.065 10.065 0 00-3.825-3.755 6.667 6.667 0 10-9.645 0c-.763.424-1.468.946-2.096 1.552a10.027 10.027 0 00-4.925-6.552 6.576 6.576 0 00.177-8.942v-38.97h23.334V85z"/><path d="M81.667 38.334h-3.334V65h3.334V38.335zm10 0h-3.334V65h3.334V38.335zm-80.001 0H8.333V65h3.333V38.335zm10.001 0h-3.334V65h3.334V38.335zM60.002 6.667H40c-.92 0-1.666.745-1.666 1.665v13.335a1.665 1.665 0 001.664 1.667H60c.92 0 1.666-.745 1.667-1.665V8.334c0-.92-.745-1.666-1.665-1.667zm-1.669 13.334H41.668V10h16.666v10z"/></g><defs><clipPath id="clip0"><path fill="#fff" d="M0 0h100v100H0z"/></clipPath></defs></svg>
